X:280
T:Polska efter Blomberg
T:(SvL Halland 280)
R:Polska
S:Karl Stenström
S:Salomon Blomberg
O:Eftra, Halland
B:Svenska Låtar Halland
M:3/4
L:1/8
K:D
(D>F) (F>A) (A>d)|((3dcd) ((3cBc) (BA)|(A>g) (g>f) (e>d)|(c>B) (A>G) (F>E)|
(D>F) (F>A) (A>d)|((3dcd) ((3cBc) (BA)|(A>g) (g>f) (e>d)|((3cBc) e2 d2:|
|:A2 a2 f2|((3fef) g2 e2|e>(f d>)(e c>)d|B>c A>B G>A|
[AD]2 a2 f2|((3fef) g2 e2|e>f d>e c>d|((3ABc) [dF]2 z2:|

